client/src/assets/file_upload_icon.svg

<svg width="16" height="13" viewBox="0 0 16 13" fill="none" xmlns="http://www.w3.org/2000/svg">
<path d="M11.9612 11.6356C13.6395 11.6356 15 10.2751 15 8.59688C15 6.91866 13.6395 5.55813 11.9612 5.55813H11.9442C11.9555 5.43301 11.9612 5.30629 11.9612 5.17829C11.9612 2.87068 10.0905 1 7.78296 1C5.47533 1 3.60464 2.87068 3.60464 5.17829C3.60464 5.18186 3.60465 5.1855 3.60466 5.18907C2.11854 5.49075 1 6.80463 1 8.37976C1 10.1779 2.45767 11.6356 4.2558 11.6356" fill="#0260FF"/>
<path d="M11.9612 11.6356C13.6395 11.6356 15 10.2751 15 8.59688C15 6.91866 13.6395 5.55813 11.9612 5.55813H11.9442C11.9555 5.43301 11.9612 5.30629 11.9612 5.17829C11.9612 2.87068 10.0905 1 7.78296 1C5.47533 1 3.60464 2.87068 3.60464 5.17829C3.60464 5.18186 3.60465 5.1855 3.60466 5.18907C2.11854 5.49075 1 6.80463 1 8.37976C1 10.1779 2.45767 11.6356 4.2558 11.6356" stroke="white" stroke-width="1.5" stroke-linecap="round" stroke-linejoin="round"/>
<path d="M8.16293 11.6354V7.83691V11.6354ZM8.16293 7.83691L9.68231 9.35629L8.16293 7.83691ZM8.16293 7.83691L6.64355 9.35629L8.16293 7.83691Z" fill="#0260FF"/>
<path d="M8.16293 11.6354V7.83691M8.16293 7.83691L9.68231 9.35629M8.16293 7.83691L6.64355 9.35629" stroke="white" stroke-width="1.5" stroke-linecap="round" stroke-linejoin="round"/>
</svg>

<?xml version="1.0" encoding="UTF-8"?>
<svg id="Layer_1" xmlns="http://www.w3.org/2000/svg" width="16" height="13" version="1.1" viewBox="0 0 16 13">
  <!-- Generator: Adobe Illustrator 29.8.1, SVG Export Plug-In . SVG Version: 2.1.1 Build 2)  -->
  <defs>
    <style>
      .st0 {
        fill: none;
        stroke: #52525c;
        stroke-linecap: round;
        stroke-linejoin: round;
        stroke-width: 1.5px;
      }

      .st1 {
        display: none;
        fill: #d8d3d4;
      }

      .st2 {
        fill: #0260ff;
      }
    </style>
  </defs>
  <path class="st1" d="M11.96,11.64c1.68,0,3.04-1.36,3.04-3.04s-1.36-3.04-3.04-3.04h-.02c.01-.13.02-.25.02-.38,0-2.31-1.87-4.18-4.18-4.18S3.6,2.87,3.6,5.18h0c-1.49.31-2.6,1.63-2.6,3.2,0,1.8,1.46,3.26,3.26,3.26"/>
  <path class="st0" d="M11.96,11.64c1.68,0,3.04-1.36,3.04-3.04s-1.36-3.04-3.04-3.04h-.02c.01-.13.02-.25.02-.38,0-2.31-1.87-4.18-4.18-4.18S3.6,2.87,3.6,5.18h0c-1.49.31-2.6,1.63-2.6,3.2,0,1.8,1.46,3.26,3.26,3.26"/>
  <path class="st2" d="M8.16,11.64v-3.8,3.8ZM8.16,7.84l1.52,1.52s-1.52-1.52-1.52-1.52ZM8.16,7.84l-1.52,1.52s1.52-1.52,1.52-1.52Z"/>
  <path class="st0" d="M8.16,11.64v-3.8M8.16,7.84l1.52,1.52M8.16,7.84l-1.52,1.52"/>
</svg>
